X: 38592
T: Stone Of Destiny
R: reel
M: 4/4
K: Aminor
|cAGA c2 AG|A2 GA c2 de|g2 ag e2 de|dcAE G2 z2|
A2 GA c2 AG|A2 GA c2 cd|edeg e2 dc|ddeg e2 g2||
e2 dc cc A2|G2 EG A2A2|ccde g2 ed|
cccd e2 g2|e2 dccc A2|G2 EG A2A2||

